!!!!SEGMENT: pl-lzu--m-15111--001-042_noskowski-zygmunt--spiewnik-dla-dzieci-op-34-42-orzeszki.krn
!!!cenid: 18xx:4739
!!!COM: Noskowski, Zygmunt
!!!COM-rismID: pe106604
!!!CDT: 1846/05/02-1909/07/23
!!!CNT: Polish
!!!GTL: Śpiewnik dla dzieci, op. 34
!!!OTL: 42. Orzeszki
!!!OMV: 042
!!!PDT: 1890
!!!AGN: Secular; Song; Children
!!!YEC: Copyright 2022 Narodowy Instytut Fryderyka Chopina (https://polishscores.org)
!!!YEM: License CC-BY-4.0 (https://creativecommons.org/licenses/by/4.0)
!!!SMS-siglum: PL-LŹu
!!!SMS-shelfmark: M 15111
!!!SMS-variant:
!!!SMS-altvar:
!!!SMS-shelfwork: 001-042 G
!!!NIFC-rismSourceID: 1001234040
!!!NIFC-rismChildID: 1001234040
!!!NIFC-islandoraID: pl-lzu:5455
!!!URL-pdf-islandora: https://repozytorium.nifc.pl/islandora/object/pl-lzu%3A5455/datastream/PDF/view
!!!URL-scan: https://polish.musicsources.pl/pl/lokalizacje/galeria/druki-muzyczne/23228/51 @EN{Scan on Polish Music Sources Website} @PL{Skany w portalu Dziedzictwo Muzyki Polskiej w otwartym dostępie}
!!!IIIF:
!!!ONB-nifc:
!!!AIN: 1 piano 1 vox
!!!key: F
!!!OMD: Allegretto.
**kern	**kern	**dynam	**kern	**text	**text	**dynam
*part2	*part2	*part2	*part1	*part1	*part1	*part1
*staff3	*staff2	*staff2,3	*staff1	*staff1	*staff1	*staff1
*I"[Piano]	*I"[Piano]	*	*I"[Voice]	*	*	*
*I'pf	*I'pf	*	*I'V	*	*	*
*Ipiano	*Ipiano	*	*Ivox	*	*	*
*ICklav	*ICklav	*	*ICvox	*	*	*
*IGacomp	*IGacomp	*	*IGsolo	*	*	*
*>[A,B,B,C]	*>[A,B,B,C]	*>[A,B,B,C]	*>[A,B,B,C]	*>[A,B,B,C]	*>[A,B,B,C]	*>[A,B,B,C]
*>A	*>A	*>A	*>A	*>A	*>A	*>A
*clefF4	*clefG2	*	*clefG2	*	*	*
*k[b-]	*k[b-]	*	*k[b-]	*	*	*
*F:	*F:	*	*F:	*	*	*
*M3/4	*M3/4	*	*M3/4	*	*	*
=1	=1	=1	=1	=1	=1	=1
!	!LO:TX:a:i:t=Cokolwiek żwawo	!LO:DY:rj	!	!	!	!
4r	(16cc/LL	f	2.r	.	.	.
.	16a/	.	.	.	.	.
.	16f/	.	.	.	.	.
.	16d/JJ)	.	.	.	.	.
2c 2F^\	4r	.	.	.	.	.
.	4r	.	.	.	.	.
=2	=2	=2	=2	=2	=2	=2
4r	(16ccc\LL	.	2.r	.	.	.
.	16aa\	.	.	.	.	.
.	16ff\	.	.	.	.	.
.	16dd\JJ)	.	.	.	.	.
*clefG2	*	*	*	*	*	*
2cc 2f^/	4r	.	.	.	.	.
.	4r	.	.	.	.	.
=3!|:	=3!|:	=3!|:	=3!|:	=3!|:	=3!|:	=3!|:
*>B	*>B	*>B	*>B	*>B	*>B	*>B
4r	(16cc/LL	.	2.r	.	.	.
.	16b-/	.	.	.	.	.
.	16e/	.	.	.	.	.
.	16d/JJ)	.	.	.	.	.
*clefF4	*	*	*	*	*	*
4c^> 4F^<\	4r	.	.	.	.	.
4c^> 4F^<\	4r	.	.	.	.	.
=4	=4	=4	=4	=4	=4	=4
4r	(16ccc\LL	.	2.r	.	.	.
.	16bb-\	.	.	.	.	.
.	16ee\	.	.	.	.	.
.	16dd\JJ)	.	.	.	.	.
*clefG2	*	*	*	*	*	*
4cc 4f/	4r	.	.	.	.	.
4cc 4f/	4r	.	.	.	.	.
*clefF4	*	*	*	*	*	*
!!LO:LB:g=original
=5	=5	=5	=5	=5	=5	=5
*	*	*	*	*v:1	*v:2	*
!	!	!	!	!	!	!LO:DY:rj
4r	(16cc/LL	.	8cc\	Da-	A	f
.	16a/	.	.	.	.	.
.	16f/	.	8dd\	-lej	kto	.
.	16d/JJ)	.	.	.	.	.
4c 4F\	4r	.	4a/	śmiesz-	tra-	.
4c 4F\	4r	.	4a/	-ki,	-fi	.
=6	=6	=6	=6	=6	=6	=6
4r	(16cc/LL	.	8cc\	na	na	.
.	16b-/	.	.	.	.	.
.	16g/	.	8dd\	o-	świ-	.
.	16e/JJ)	.	.	.	.	.
4c 4F\	4r	.	4g/	-rze-	-sta-	.
4c 4F\	4r	.	4g/	-szki,	-ka,	.
=7	=7	=7	=7	=7	=7	=7
4r	(16cc/LL	.	2a/	Da-	Te-	.
.	16a/	.	.	.	.	.
.	16f/	.	.	.	.	.
.	16d/JJ)	.	.	.	.	.
4c 4F\	4r	.	.	.	.	.
4c 4F\	4r	.	4b-/	-lej	-go	.
=8	=8	=8	=8	=8	=8	=8
4r	(16cc/LL	.	8g/	ra-	smu-	.
.	16b-/	.	.	.	.	.
.	16g/	.	8cc\	-zem	-tny	.
.	16e/JJ)	.	.	.	.	.
4c 4F\	4r	.	4cc\	w las!	los!	.
4c 4F\	4a 4f/	.	4r	.	.	.
!!LO:LB:g=original
=9	=9	=9	=9	=9	=9	=9
*	*	*	*	*v:1	*v:2	*
4r	(16a/LL	.	8a/	Już	Tyl-	.
.	16f/	.	.	.	.	.
.	16d/	.	8dd\	le-	-ko	.
.	16B-/JJ)	.	.	.	.	.
4A 4D\	4r	.	4a/	-szczy-	pró-	.
4A 4D\	4r	.	4a/	-na	-chno	.
=10	=10	=10	=10	=10	=10	=10
4r	(16a/LL	.	8dd\	się	i	.
.	16g/	.	.	.	.	.
.	16e/	.	8ee\	u-	ta-	.
.	16c#X/JJ)	.	.	.	.	.
4A 4D\	4r	.	4a/	-gi-	-ba-	.
4A 4D\	4r	.	4a/	-na,	-ka,	.
=11	=11	=11	=11	=11	=11	=11
4r	(16dd/LL	.	2ff\	Wo-	Co	.
.	16a/	.	.	.	.	.
.	16f/	.	.	.	.	.
.	16d/JJ)	.	.	.	.	.
4A 4D\	4r	.	.	.	.	.
4G\	4ee 4b- 4e/	.	4ee\	-ła,	nie	.
=12	=12	=12	=12	=12	=12	=12
4A\	4cc#X 4a 4e/	.	8cc#X\	wo-	i-	.
.	.	.	8a/	-ła	-dzie	.
4D\	4dd 4a 4f/	.	4dd\	nas.	w nos!	.
4r	4dd 4d/	.	4r	.	.	.
!!LO:PB:g=original
=13	=13	=13	=13	=13	=13	=13
*	*	*	*	*v:1	*v:2	*
4B- 4Cn\	4dd 4e/	.	4.dd\	My,	A	.
2B- 2C\	(8e/L	.	.	.	.	.
.	8b-/	.	8b-/	le-	kto	.
.	8a/	.	8a/	-szczy-	tra-	.
.	8b-/J)	.	8b-/	-no,	-fi	.
=14	=14	=14	=14	=14	=14	=14
4A 4C\	(8ccL 8f/	.	8cc\	ci	na	.
.	8dd/J)	.	8dd\	ul-	dwo-	.
2A 2C\	4cc 4f/	.	4cc\	-ży-	-jacz-	.
.	4a/	.	4a,/	-my,	-ki,	.
=15	=15	=15	=15	=15	=15	=15
4G 4C\	4b- 4e/	.	4.b-/	W to	Te	.
4G 4C\	(8e/L	.	.	.	.	.
.	8g/	.	8g/	nam,	po-	.
4B- 4C\	8f 8d/	.	8f/	w to	-wie-	.
.	8gJ 8e/)	.	8g/	nam	-dzie	.
=16	=16	=16	=16	=16	=16	=16
4c 4F\	(8aL 8f/	.	(<8a/L	graj!	nas,	.
.	8b-/J)	.	8b-/J	.	.	.
4A 4F\	4cc 4f/	.	4cc\)	.	.	.
4B- 4F\	4g/	.	4r	.	.	.
!!LO:LB:g=original
=17	=17	=17	=17	=17	=17	=17
*	*	*	*	*v:1	*v:2	*
4c 4F\	4ee-X 4a\	.	4.ee-X\	Wnet	Da-	.
2c 2F#X\	8a\L	.	.	.	.	.
.	8dd\	.	8dd\	o-	-lej,	.
.	8cc\	.	8cc\	-rzesz-	śmiesz-	.
.	8dd\J	.	8dd\	-kom	-ki,	.
=18	=18	=18	=18	=18	=18	=18
4c 4D\	8ee-XL 8f#X/	.	8ee-X\	po-	na	.
.	8dd/J	.	8dd\	-ra-	o-	.
4B- 4G\	4g/	.	4g/	-dzi-	-rze-	.
4r	(8a/L	.	(8a/L	-my,	-szki,	.
.	8b-/J)	.	8b-,/J)	.	.	.
=19	=19	=19	=19	=19	=19	=19
4r	8.cc\L	.	8.cc\	Tyl-	Da-	.
.	16dd\Jk	<	16dd\	-ko	-lej,	.
4A 4C\	4cc 4f/	.	4cc\	nam	da-	.
4G#X 4C\	4dd 4en/	[	4dd\	je	-lej	.
=20	=20	=20	=20	=20	=20	=20
4A 4C\	4cc 4f/	.	(4cc\	daj!	w las!	.
2c:: 2A:: 2C::\	2ff:: 2cc:: 2f::\	.	2ff\)	.	.	.
=21	=21	=21	=21	=21	=21	=21
4r	8.g/L	.	8.g/	Tyl-	Da-	.
.	16a/Jk	.	16a/	-ko	-lej,	.
4B- 4C\	4g 4e/	.	4g/	nam	da-	.
4B- 4C\	(8b-L 8e/	.	(8b-\L	je	-lej	.
.	8dd/J)	.	8dd\J)	.	.	.
!!LO:LB:g=original
=22	=22	=22	=22	=22	=22	=22
*	*	*	*	*v:1	*v:2	*
4B- 4C\	4cc 4e/	>	(4cc\	daj!	w las!	.
2A 2F\	2f 2c/	]	2f/)	.	.	.
=23	=23	=23	=23	=23	=23	=23
!	!	!LO:DY:rj	!	!	!	!
4r	(16cc/LL	f	2.r	.	.	.
.	16a/	.	.	.	.	.
.	16f/	.	.	.	.	.
.	16d/JJ)	.	.	.	.	.
2c 2F^\	4r	.	.	.	.	.
.	4r	.	.	.	.	.
=24	=24	=24	=24	=24	=24	=24
4r	(16ccc\LL	.	2.r	.	.	.
.	16aa\	.	.	.	.	.
.	16ff\	.	.	.	.	.
.	16dd\JJ)	.	.	.	.	.
*clefG2	*	*	*	*	*	*
2cc 2f/	4r	.	.	.	.	.
.	4r	.	.	.	.	.
=25:|!	=25:|!	=25:|!	=25:|!	=25:|!	=25:|!	=25:|!
*>C	*>C	*>C	*>C	*>C	*>C	*>C
4r	(16cc/LL	.	2.r	.	.	.
.	16a/	.	.	.	.	.
.	16f/	.	.	.	.	.
.	16d/JJ)	.	.	.	.	.
*clefF4	*	*	*	*	*	*
4c 4F^\	4r	.	.	.	.	.
4c 4F^\	4ff 4a^\	.	.	.	.	.
=26	=26	=26	=26	=26	=26	=26
2c 2F^\	2ff 2a^\	.	2.r	.	.	.
4r	4r	.	.	.	.	.
==	==	==	==	==	==	==
*-	*-	*-	*-	*-	*-	*-
!!!system-decoration: p1{p2}
!!!RDF**kern: > = above
!!!RDF**kern: < = below
!!!ENC: Andrzej Gręziak
!!!END: 2025-03-06
!!!ENC: Marta Lawrence
!!!END: 2025-03-23
